CommonLib.Web/CommonLib.Web/wwwroot/icons/light/flower-daffodil.svg

<svg xmlns="http://www.w3.org/2000/svg" viewBox="0 0 512 512"><!--! Font Awesome Pro 6.2.0 by @fontawesome - https://fontawesome.com License - https://fontawesome.com/license (Commercial License) Copyright 2022 Fonticons, Inc. --><path d="M288 144c0-17.62-14.38-32-32-32s-32 14.38-32 32S238.4 176 256 176S288 161.6 288 144zM495.9 288h-47.26c-69.01 0-134.1 31.62-176.7 86V277.5C284.5 284.4 298.6 288 312.9 288c48.13 0 87.14-39 87.14-87.12c0-20.88-7.501-41.13-21.38-56.88c13.88-15.75 21.38-36 21.38-56.88C400 39 361 0 312.9 0C292 0 271.8 7.5 256 21.38C240.2 7.5 219.1 0 199.1 0C150.1 0 111.1 39 111.1 87.12c0 20.88 7.501 41.12 21.38 56.88C119.5 159.8 111.1 180 111.1 200.9C111.1 249 150.1 288 199.1 288c14.25 0 28.38-3.625 40.88-10.5v96.5C197.5 319.6 132.4 288 63.35 288H16.09C6.962 288-.9142 297.1 .0859 307.7C9.962 422.2 106.4 512 223.9 512h64.26c117.5 0 213.9-89.88 223.8-204.4C512.9 297 505 288 495.9 288zM239.1 480H223.9c-93.89 0-174.7-69.13-190-160l29.5-.0023c67.64 0 130.3 35.38 165 93.38C241.1 436.1 239.1 454 239.1 480zM256 216.4L243.1 233.6C232.9 247.6 216.5 256 199.1 256c-30.38 0-55.13-24.62-55.13-55.12c0-17.38 8.376-33.75 22.38-44L183.6 144l-17.25-12.88C152.4 120.9 143.1 104.5 143.1 87.12C143.1 56.62 168.7 32 199.1 32c17.38 0 33.76 8.375 44.01 22.38L256 71.62l12.88-17.25C279.1 40.38 295.5 32 312.9 32c30.38 0 55.13 24.62 55.13 55.12c0 17.38-8.376 33.75-22.38 43.1L328.4 144l17.25 12.88c14 10.25 22.38 26.62 22.38 44C368 231.4 343.3 256 312.9 256c-17.38 0-33.76-8.375-44.01-22.38L256 216.4zM288 480h-16c0-25.1-2-43.88 11.63-66.63c34.76-58 97.39-93.38 165-93.38L478.2 320C462.8 410.9 382 480 288 480z"/></svg>

<svg xmlns="http://www.w3.org/2000/svg" viewBox="0 0 512 512"><path d="M288 144a32 32 0 1 0-32 32 32 32 0 0 0 32-32zm207.87 144H448.6A224 224 0 0 0 272 374v-96.54A85.76 85.76 0 0 0 312.87 288 87.22 87.22 0 0 0 400 200.89 85.82 85.82 0 0 0 378.62 144 85.82 85.82 0 0 0 400 87.11 87.22 87.22 0 0 0 312.87 0 85.8 85.8 0 0 0 256 21.36 85.8 85.8 0 0 0 199.13 0 87.22 87.22 0 0 0 112 87.11 85.82 85.82 0 0 0 133.38 144 85.82 85.82 0 0 0 112 200.89 87.22 87.22 0 0 0 199.13 288 85.64 85.64 0 0 0 240 277.46V374a224 224 0 0 0-176.6-86H16.13c-9.19 0-17 9-16.06 19.65C10.06 422.15 106.43 512 223.83 512h64.34c117.4 0 213.77-89.85 223.76-204.35.92-10.65-6.87-19.65-16.06-19.65zM240 480h-16.17c-93.89 0-174.52-69.14-189.94-160H63.4a192.45 192.45 0 0 1 165 93.35C242 436.09 240 454.05 240 480zm16-263.61l-12.84 17.22a54.58 54.58 0 0 1-44 22.39A55.17 55.17 0 0 1 144 200.89a54.59 54.59 0 0 1 22.41-44.06L183.63 144l-17.22-12.83A54.59 54.59 0 0 1 144 87.11 55.17 55.17 0 0 1 199.13 32a54.58 54.58 0 0 1 44 22.39L256 71.61l12.84-17.22a54.58 54.58 0 0 1 44-22.39A55.17 55.17 0 0 1 368 87.11a54.59 54.59 0 0 1-22.41 44.06L328.37 144l17.22 12.83A54.59 54.59 0 0 1 368 200.89 55.17 55.17 0 0 1 312.87 256a54.58 54.58 0 0 1-44-22.39zM288 480h-16c0-26-2-43.9 11.63-66.65A192.45 192.45 0 0 1 448.6 320h29.51C462.69 410.86 382.05 480 288 480z"/></svg>
